_harp/images/icon-linkedin.svg

<?xml version="1.0" encoding="utf-8"?>
<!-- Generator: Adobe Illustrator 19.2.0, SVG Export Plug-In . SVG Version: 6.00 Build 0)  -->
<!DOCTYPE svg PUBLIC "-//W3C//DTD SVG 1.1//EN" "http://www.w3.org/Graphics/SVG/1.1/DTD/svg11.dtd">
<svg version="1.1" id="Layer_1" xmlns="http://www.w3.org/2000/svg" xmlns:xlink="http://www.w3.org/1999/xlink" x="0px" y="0px"
	 width="55px" height="55px" viewBox="0 0 55 55" style="enable-background:new 0 0 55 55;" xml:space="preserve">
<style type="text/css">
	.st0{fill:#FFFFFF;}
</style>
<g>
	<g>
		<path class="st0" d="M17,18c0-0.7,0.3-1.3,0.8-1.8c0.5-0.5,1.2-0.7,2-0.7c0.8,0,1.5,0.2,2,0.7c0.5,0.5,0.7,1.1,0.8,1.8
			c0,0.7-0.2,1.3-0.8,1.8c-0.5,0.5-1.2,0.7-2,0.7c-0.8,0-1.5-0.2-2-0.7S17,18.7,17,18z M17.3,37.3V22.6h4.9v14.7H17.3z M24.9,37.3
			v-9.6v-4.4v-0.7h4.9v2.1c0.2-0.3,0.4-0.6,0.6-0.8c0.2-0.2,0.5-0.5,0.8-0.8c0.4-0.3,0.8-0.5,1.3-0.6c0.5-0.2,1.1-0.2,1.7-0.2
			c1.7,0,3.1,0.6,4.1,1.7s1.5,2.8,1.5,4.9v8.5h-4.9v-7.9c0-1-0.2-1.9-0.6-2.4c-0.4-0.6-1-0.9-1.9-0.9c-0.6,0-1.1,0.2-1.6,0.5
			c-0.4,0.3-0.7,0.8-0.9,1.3c-0.1,0.3-0.2,0.7-0.2,1.2v8.2h-4.8V37.3z"/>
	</g>
</g>
</svg>

<?xml version="1.0" encoding="UTF-8" standalone="no"?>
<svg width="55px" height="55px" viewBox="0 0 55 55" version="1.1" xmlns="http://www.w3.org/2000/svg" xmlns:xlink="http://www.w3.org/1999/xlink">
    <defs></defs>
    <g stroke="none" stroke-width="1" fill="none" fill-rule="evenodd">
        <g fill="#2C6576">
            <path d="M51.2,13.7 C48.7,9.5 45.4,6.2 41.2,3.7 C37,1.2 32.4,0 27.4,0 C22.4,0 17.8,1.2 13.6,3.7 C9.4,6.2 6.1,9.5 3.6,13.7 C1.2,17.9 0,22.5 0,27.5 C0,32.5 1.2,37.1 3.7,41.3 C6.2,45.5 9.5,48.8 13.7,51.3 C17.9,53.8 22.5,55 27.5,55 C32.5,55 37.1,53.8 41.3,51.3 C45.5,48.8 48.8,45.5 51.3,41.3 C53.8,37.1 55,32.5 55,27.5 C54.9,22.5 53.6,17.9 51.2,13.7 Z M17,18 C17,17.3 17.3,16.7 17.8,16.2 C18.3,15.7 19,15.5 19.8,15.5 C20.6,15.5 21.3,15.7 21.8,16.2 C22.3,16.7 22.5,17.3 22.6,18 C22.6,18.7 22.4,19.3 21.8,19.8 C21.3,20.3 20.6,20.5 19.8,20.5 C19,20.5 18.3,20.3 17.8,19.8 C17.3,19.3 17,18.7 17,18 Z M17.3,37.3 L17.3,22.6 L22.2,22.6 L22.2,37.3 L17.3,37.3 Z M24.9,37.3 L24.9,27.7 L24.9,23.3 L24.9,22.6 L29.8,22.6 L29.8,24.7 C30,24.4 30.2,24.1 30.4,23.9 C30.6,23.7 30.9,23.4 31.2,23.1 C31.6,22.8 32,22.6 32.5,22.5 C33,22.3 33.6,22.3 34.2,22.3 C35.9,22.3 37.3,22.9 38.3,24 C39.3,25.1 39.8,26.8 39.8,28.9 L39.8,37.4 L34.9,37.4 L34.9,29.5 C34.9,28.5 34.7,27.6 34.3,27.1 C33.9,26.5 33.3,26.2 32.4,26.2 C31.8,26.2 31.3,26.4 30.8,26.7 C30.4,27 30.1,27.5 29.9,28 C29.8,28.3 29.7,28.7 29.7,29.2 L29.7,37.4 L24.9,37.4 L24.9,37.3 Z"></path>
        </g>
    </g>
</svg>
